X:1
T:O Holy Night
T:O Holy Night
T:Adolphe Adam, 1843
T:Placide Cappeau, 1843, tr. John S. Dwight, 1855
T:Public Domain Courtesy of the Cyber Hymnal™
T:Public Domain Courtesy of the Cyber Hymnal™
T:Public Domain Courtesy of the Cyber Hymnal™
T:Public Domain Courtesy of the Cyber Hymnal™
T:Public Domain Courtesy of the Cyber Hymnal™
T:Public Domain Courtesy of the Cyber Hymnal™
C:Adolphe Adam, 1843
Z:Public Domain
Z:Courtesy of the Cyber Hymnal™
%%score ( 1 2 ) ( 3 4 ) ( 5 6 ) ( 7 8 )
L:1/8
Q:1/4=77
M:4/4
K:Db
V:1 treble 
V:2 treble 
V:3 bass 
V:4 bass 
V:5 treble 
V:6 treble 
V:7 bass 
V:8 bass 
V:1
"^Andante maestoso" z4 | z8 | z8 | z8 |S z4 F2 F>F | (A2 A>)A B>B G>B | d4 A>A F>E | %7
w: ||||1.~O ho- ly|night, * the stars are bright- ly|shin- ing; It is the|
w: ||||2.~Led by the|light * of faith se- rene- ly|beam- ing, With glow- ing|
w: ||||3.~Tru- ly He|taught * us to love one an-|o- ther; His law is|
 D2 F>G A2 G>E | D8 | z4 F2 F>F ||1 (A2 A>)A B>B G>B | d4 A>A!>(! =G>F!>)! | c2 A>B c2 d>c | %13
w: night of the dear Sav- ior’s|birth!|Long lay the|world * in sin and er- ror|pin- ing, Till He ap-|peared and the soul felt its|
w: hearts by His cra- dle we|stand.|So led by|light * of a star sweet- ly|gleam- ing, Here came the|wise men from Or- i- ent|
w: love and His Gos- pel is|peace.|Chains shall He|break, * for the slave is our|bro- ther And in His|name all op- pres- sion shall|
 F6 z!pp! A ||2 A2 B2 E2 A2 | B>A d>F B2 A>A | A2!<(! B2 E2 A2 | B>A!<)! d>F A4 |: %18
w: worth. A|thrill of hope, the|wea- ry soul re- joic- es, For|yon- der breaks a|new and glor- ious morn.|
w: land. The|King of kings lay|thus in low- ly man- ger, In|all our tri- als|born to be our friend!|
w: cease. Sweet|hymns of joy in|grate- ful chor- us raise we, Let|all with- in us|praise His ho- ly name!|
!f! [Fd]6 [Fc]>[FB] |!>(! [Ac]6!>)! ([Fc][Fc]) |!<(! [Ge]4- [Ge]>!<)![GB] [GB]>[GB] | %21
w: Fall on your|knees, O *|hear * the an- gel|
w: He knows our|need— to~our *|weak- * ness is no|
w: Christ is the|Lord! O *|praise * His name for-|
 [Fd]4 [Fd]2 z [Fd] |!>(! ([Af]4 [Ae]3)!>)! A | ([Ad]4 [Bd]2 [Ac]>)[GB] | %24
w: voic- es! O|night * di-|vine, * * O|
w: stran- ger. Be-|hold * your|king; * * be-|
w: ev- er! His|pow’r * and|glo- * * ry|
!mp! [FA-]4 [GA]>[GA] [GB]>[GA] | [FA]6 [Ad]2 |1 [Ae]6 z A | f6 [Be]2 x3 | [Ad]4 [Gc]2 [Gd]>[Ge] | %29
w: night when Christ was born!|O night,|O ho-|ly night,|O night di- vine!|
w: fore Him low- ly bend!|Be- hold|your king;|be- fore|Him low- ly bend!|
w: ev- er- more pro- claim!|His pow’r|and glo-|ry ev-|er- more pro- claim!|
!>(! [Fd]6!>)! z2 :|2 [Ae]6 [Ae]2 || a4- (agf)e | [Ad]4 [Gc]2 [Fd]>[Ge] | [Fd]4 |] %34
w: night,|O ho-|ly * * * night,|O night di- vine!||
w: hold|your king;|be- * * * fore|Him low- ly bend!||
w: pow’r|and glo-|ry * * * ev-|er- more pro- claim!||
V:2
 x4 | x8 | x8 | x8 | x8 | x8 | x8 | x8 | x8 | x8 ||1 x8 | x8 | x8 | x8 ||2 x8 | x8 | x8 | x8 |: %18
 x8 | x8 | x8 | x8 | x8 | x8 | x8 | x8 |1 x8 | A4 B2 x5 | x8 | x8 :|2 x8 || A4 B2 B2 | x8 | x4 |] %34
V:3
 z4 | x8 | [B,D]6 [B,E]>[B,D] | [A,C]6 ([F,A,][F,A,]) | [E,B,]4- [E,B,]>[E,E] [E,E]>[E,E] | %5
 [B,D]4 [B,D]2 z [B,D] | ([A,D]4 [G,C]3) [G,C] | ([F,D]4 [G,D]2 [G,D]>)[G,D] | %8
 ([A,D]4 [A,,C]>)[A,,C] [A,,C]>[A,,C] | [D,D]6 [F,D]2 ||1 [A,C]7 [G,C] | [F,D]4 [G,D]2 DE | %12
 [A,F]4 [A,E]2 [A,D]>[A,,C] | [D,D]6 z2 ||2 [A,C]6 [G,C]2 | D2 _C2 B,2 [G,E]2 | %16
 [A,F]4 [A,E]2 [A,D]>[A,C] | [D,D]4 x4 |: x8 | x8 | x8 | x8 | x8 | x8 | x8 | x8 |1 x8 | x11 | x8 | %29
 x8 :|2 x8 || x8 | x8 | x4 |] %34
V:4
 x4 | x8 | x8 | x8 | x8 | x8 | x8 | x8 | x8 | x8 ||1 x8 | x6 G,2 | x8 | x8 ||2 x8 | F,4 G,2 x2 | %16
 x8 | x8 |: x8 | x8 | x8 | x8 | x8 | x8 | x8 | x8 |1 x8 | x11 | x8 | x8 :|2 x8 || x8 | x8 | x4 |] %34
V:5
 ([DF]2 [DF]>F) | (A2 A>A) (B2 G>B) | [=Ed]4 [Ed] ([=GB=eb][GBec'][GBed']) | (f'd'af) (f2 e2) | %4
 (3:2:6(F,DA,FDA,) (3:2:6(F,DA,FDA,) | (3:2:6(F,DA,FDA,) (3:2:6(G,DB,GDB,) | %6
 (3:2:6(F,DA,FDA,) (3:2:6(F,DA,FDA,) | (3:2:6(F,DA,FDA,) (3:2:6(G,CA,ECA,) | %8
 (3:2:6(F,DA,FDA,) (3:2:6(F,DA,FDA,) | (3:2:6(F,DA,FDA,) (3:2:6(F,DA,FDA,) ||1 %10
 (3:2:6(F,DA,FDA,) (3:2:6(G,DB,GDB,) | (3:2:6(F,DA,FDA,) (3:2:6(F,=B,A,FB,A,) | %12
 (3:2:6(F,CA,FCA,) (3:2:6(=G,CB,=ECB,) | (3:2:6(F,CA,FCA,) (3:2:6(F,CA,FCA,) ||2 %14
 (3:2:6(G,CA,ECA,) (3:2:6(G,CA,ECA,) | (3:2:6(F,DA,FDA,) (3:2:6(F,DA,FDA,) | %16
 (3:2:6(G,CA,ECA,) (3:2:6(G,CA,ECA,) | (3:2:6(F,DA,FDA,) (3:2:6(F,DA,FDA,) |: (defdBd) (cf/)B/ | %19
 (A-cf=gag) ([Af][Ac]) | (eBef) (ga)bc' | (d'bd'e') [bd']2 [Fd]2 | ([Af]4 [Ae]3) A | %23
 ([Ad]4 [Bd]2 [Ac]>)[GB] | ([FA]4 [CGA]>)[CGA] [CGB]>[CGA] | [DFA]6 [FAd]2 |1 %26
 ([EAce]4 [EGce]3) [A,CEA] | f6 [FB]2 e3 | [DFAd]4 [EGAc]2 [EGAd]>[EGce] | %29
 (3:2:6([DFAd]DA,FDA,) (3:2:6(F,DA,DFA) :|2 [EGAe]6 [CEA]2 || ([A-da-]2 [Ada]2 agf)e | %32
 [FAd]4 [EGc]2 [FAd]>[GAe] | [FAd]4 |] %34
V:6
 x4 | D4 D4 | x8 | [Adf]4 c4 | x8 | x8 | x8 | x8 | x8 | x8 ||1 x8 | x8 | x8 | x8 ||2 x8 | x8 | x8 | %17
 x8 |: F6 F2 | A6 x2 | G4 B2 e2 | d6 x2 | x8 | x8 | x8 | x8 |1 x8 | [FA]4 [EB]2 x5 | x8 | x8 :|2 %30
 x8 || x4 [_cd]2 B2 | x8 | x4 |] %34
V:7
 [D,A,]4 | [F,A,]4 [G,B,]4 | [=G,B,]4 [G,B,] z3 | z4 [A,G]4 | [D,,A,,D,]8 | [D,,A,,D,]4 [G,,D,]4 | %6
 [D,,A,,D,]4 [F,,D,]4 | [A,,,A,,]8 | [D,,A,,D,]8 | [D,,A,,D,]8 ||1 [D,,A,,D,]4 [G,,D,]4 | %11
 [D,,A,,D,]4 [D,,D,]4 | [C,,C,]4 [C,,C,]4 | F,,4 z4 ||2 C,2 A,,2 C,2 A,,2 | D,2 A,,2 D,2 A,,2 | %16
 C,2 A,,2 C,2 A,,2 | D,2 A,,2 [D,,A,,]2 z2 |: [B,D]6 E>D | [F,C]6- [F,C][F,A,] | B,6 G,2 | %21
 [B,,F,]6 [B,D]2 | ([A,D]4 [G,C]3) [G,C] | ([F,D]4 [G,D]2 [G,D]2) | ([A,D]4 A,,4) | %25
 ([D,D]2 [C,C]2 [B,,B,]2) [A,,A,]2 |1 ([A,,A,]4 [G,,G,]4) | [F,,F,]4 ([G,,G,]4 x3 | %28
 [A,,A,]2 [A,,,A,,]2) [A,,,A,,]2 [A,,A,]2 | [D,,A,,D,]8 :|2 [C,C]2 [B,,B,]2 [A,,A,]2 [G,,G,]2 || %31
 ([F,,F,]4 [G,,G,]2) [G,,G,]2 | [A,,A,]4 [A,,A,]2 [A,,,A,,]2 | [D,,D,]4 |] %34
V:8
 x4 | x8 | x8 | x8 | x8 | x8 | x8 | x8 | x8 | x8 ||1 x8 | x8 | x8 | x8 ||2 C,,8 | D,,8 | C,,8 | %17
 D,,4 x4 |: x6 B,2 | x8 | E,8 | x8 | x8 | x8 | x8 | x8 |1 x8 | x11 | x8 | x8 :|2 x8 || x8 | x8 | %33
 x4 |] %34

